X: 82
T:Jenny (the Garter)
M:4/4
L:1/8
Q:160
S:Playford
K:C
e3 d ef g2| c2 G2 c2 cd| e2 ef g2 fe| dcde d2 g2| e3 d ef g2 |c2 G2 c2 cd| e2 ef f3 e/2f/2|c2 A2 B2 G2:|
|:g3  f/2e/2 d2 g2| e3 dc e2| d2 cB A2 d2| B3 A G2 (3def| g3 f/2e/2 d2 g2| e3 f g2 c2| d2 ef d4 c | c6:|

